!!!OTL: Gefunden!
!!!OTL-incipit: DER JAEGER IN DEM GRUENEN WALD
!!!COM: Volksweise
!!!ARE: Europa, Mitteleuropa, Deutschland
!!!SCT: F0655
!!!TXL: @@DE
!!!YEM: Copyright 1995, estate of Helmut Schaffrath.
**kern	**text
*ICvox	*
*clefG2	*
*M4/4	*
*met(c)	*
*k[]	*
*C:	*
!LO:TX:a:t=Munter.	!
{4g	1._Der
=1	=1
4.cc	Jä-
8b	-ger
4a	in
4g	dem
=2	=2
(4.a	grü-
8g)	-nen
4f}	Wald
{4e	wollt'
=3	=3
4g	ſu-
4g	-chen
4a	ſei-
4b/	-nen
=4	=4
(>4cc/	Auf-
4ee/)	.
(>4.dd/	-ent-
8b/)	.
=5	=5
2cc/	-halt.
4r}	.
{4g	1._Der
=6	=6
4.cc	Jä-
8b	-ger
4a	in
4g	dem
=7	=7
(4.a	grü-
8g)	-nen
4f}	Wald
{4e	wollt'
=8	=8
4g	ſu-
4g	-chen
4a	ſei-
4b/	-nen
=9	=9
(>4cc/	Auf-
4ee/)	.
(>4.dd/	-ent-
8b/)	.
=10	=10
2cc/	-halt.
4r}	.
{4cc/	Er
=11	=11
4b/	ging
4dd/	im
4dd/	Wald
4b/	wohl
=12	=12
4.cc/	hin
8dd/	und
4ee/}	her,
{4cc/	Er
=13	=13
4b/	ging
4dd/	im
4dd/	Wald
4b/	wohl
=14	=14
4.cc/	hin
8dd/	und
4ee/}	her,
{4g	ob
=15	=15
(4.cc	auch
8b)	.
4a	nichts,
4g	ob
=16	=16
(>4.a	auch
8g)	.
4f}	nichts,
{4e	ob
=17	=17
4g	auch
4g	nichts
4a	an-
4b/	-ʒu-
=18	=18
(>4cc/	-tref-
4ee/)	.
(>4.dd/	-fen
8b/)	.
=19	=19
2cc/	wär'.
4r}	.
==	==
!!!AGN: Staende -, Jaeger - Lied, Liebe
!!!ONB: ESAC (Essen Associative Code) Database: FINK
!!!AMT: simple quadruple
!!!AIN: vox
!!!EED: Helmut Schaffrath
!!!EEV: 1.0
!!!RDF**kern: > = above
!!!GTL: Soldaten- und Jaegerlieder
!!Text: Volkslied
!!!source: Musikalischer Hausschatz der Deutschen. Eine Sammlung von über 1000 Liedern und Gesängen mit Singstimmen und Klavierbegleitung. Leipzig, Litterarisches Verlags-Haus.
!!!page: 431
!!!URL-scan: https://www.digitale-sammlungen.de/en/view/bsb11144622?page=398
!!!ENC: Anna Maria Matuszewska
!!!EEV: 2024/08/05
*-	*-
